resources/images/elk-asset-type-hero.svg

<svg viewBox="0 0 285.795 54.5" xmlns="http://www.w3.org/2000/svg"><g fill="#222"><path d="m9.867 4.022-.5 1.354 2.79 14.4.706 1.153h-4.785l.446-1.213-.388-2.389h-2.8l-.389 2.424.436 1.178h-4.803l.706-1.142 2.765-14.376-.47-1.389zm-4.038 10.24h1.8l-.905-5.744z"/><path d="m22.52 4.034 2.236 2.237v4.554l-1.4 1.413 1.4 1.388-.011 5.121-2.166 2.178h-8.463l.423-1.142v-14.483l-.423-1.27zm-4.567 7.9 2.66-1.377.706-.718v-1.921l-.729-.718h-2.637zm.011 6h2.626l.753-.718v-2.542l-.718-.718-2.661 1.378z"/><path d="m34.962 4.022 2.272 2.249v1.541l-3.425 1.5v-1.618l-.6-.612-2.167.018-.647.646v9.511l.612.6 2.154.013.623-.648.013-.765 3.437-1.5v3.732l-2.272 2.236h-5.733l-2.247-2.248v-12.406l2.247-2.249z"/><path d="m48.051 4.034 2.237 2.237-.012 12.476-2.166 2.178h-8.463l.424-1.142v-14.483l-.424-1.27zm-4.567 13.831h2.636l.754-.731v-9.31l-.719-.718h-2.671z"/><path d="m61.987 4.034.741 3.543-1.412-.477h-4.716v3.636h3.344l1.377-.47v3.9l-1.307-.435-3.414.011v4.133l5.651.011v-.011l1.4-.483-.706 3.543h-10.222l.459-1.248v-14.276l-.459-1.377z"/><path d="m74.511 4.034.729 3.543-1.4-.477h-4.72v3.636h3.343l1.377-.459v3.884l-1.307-.435-3.413.011v5.933l.541 1.26h-4.425l.458-1.248v-14.271l-.458-1.377z"/><path d="m85.188 4.034 2.259 2.248.024 1.53-3.766 1.66.329-1.342v-.424l-.577-.606-2.157.006-.659.635v9.511l.612.6 2.153.013.625-.625v-3.14l-.989-.884 4.426-1.93-.024 7.4-2.259 2.236h-5.706l-2.249-2.245v-12.395l2.249-2.248z"/><path d="m100.89 4.045-.46 1.377v14.232l.613 1.271h-4.5l.471-1.271v-5.274h-3.27v5.32l.588 1.225h-4.46l.459-1.236v-14.278l-.459-1.366h4.328l-.456 1.355v5.59h3.273v-5.649l-.436-1.3z"/><path d="m107.692 3.987-.458 1.377.023 14.3.611 1.26h-4.554l.435-1.2.058-14.36-.458-1.377z"/><path d="m120.641 4.034-.46 1.365v13.301l-2.212 2.225h-5.744l-2.131-2.143-.023-1.6 2.79-1.212v-.012l.917-.4-.317 1.282v.542l.518.518h2.236l.6-.6v-10.076l-1.249-3.19z"/><path d="m133.941 20.925h-4.461l.447-1.2v-6.2l-.718-.719-2.46 1.236.012 5.627.6 1.26h-4.533l.448-1.2.024-14.36-.46-1.377h4.36l-.47 1.377.012 5.274 2.444-1.243.706-.73v-3.329l-.447-1.354h4.355l-.46 1.365v4.319l-1.412 1.4 1.4 1.4v7.181z"/><path d="m140.556 4.022-.472 1.4-.011 12.443 5.65.011v-.011l1.4-.483-.106.494-.6 3.049h-10.228l.459-1.248v-14.277l-.459-1.377z"/><path d="m163.028 4.034-.46 1.388v14.243l.612 1.26h-4.144l.472-1.271v-8.84l-2.249 5.968h-2.271l-2.26-5.968v8.851l.612 1.26h-4.14l.472-1.271v-14.22l-.472-1.4h4.462l2.448 6.674 2.484-6.674z"/><path d="m165.44 4.034h3.5q-.129 0 4.049 7.969l.011-6.71-.518-1.259h4.118l-.46 1.235v14.531l.541 1.13h-3.3l-4.2-8.769v7.5l.613 1.271h-4.214l.447-1.225v-14.449z"/><path d="m187.039 4.034 2.26 2.237v12.406l-2.26 2.248h-5.709l-2.248-2.248v-12.395l2.248-2.248zm-1.778 13.806.625-.658v-9.476l-.586-.606h-2.141l-.66.658v9.476l.6.611z"/><path d="m200.01 4.045 2.237 2.237-.012 6.485-2.166 2.166h-4.614v4.732l.611 1.26h-4.484l.459-1.248v-14.377l-.423-1.259zm-4.555 7.817h2.636l.742-.719v-3.319l-.707-.718h-2.671z"/><path d="m212.593 4.034 2.26 2.237v12.381l-.059.06 1.424 1.435-2.178 2.178-1.435-1.435-.012.011h-5.7l-2.249-2.249v-12.37l2.256-2.248zm-1.778 13.783.624-.648v-9.475l-.576-.6h-2.155l-.647.646v9.46l.6.612z"/><path d="m225.506 4.045 2.236 2.226-.012 6.485-2.013 2.013 2.238 4.732 1.282 1.424h-5.167l.377-1.048-2.155-4.944h-1.342v4.721l.613 1.271h-4.485l.459-1.248v-14.377l-.424-1.259zm-4.556 7.817h2.626l.753-.731v-3.307l-.718-.718h-2.661z"/><path d="m238.724 4.034 2.237 2.26v2.377l-3.414 1.483v-2.46l-.576-.588-2.155-.006-.647.646v2.1l6.531 3.474v5.321l-2.273 2.284h-5.708l-2.236-2.236v-2.437l3.413-1.2v2.188l.6.6h2.154l.648-.646v-2l-6.533-3.484v-5.428l2.235-2.248z"/><path d="m253.5 4.01.729 3.543-1.4-.483h-2.532v12.6l.613 1.26h-4.51l.47-1.26v-12.6h-2.47l-1.4.483.729-3.543z"/><path d="m267.209 4.01-.447 1.354-.024 13.418-2.13 2.143h-5.733l-2.224-2.225v-13.313l-.459-1.377h4.3l-.459 1.377v11.888l.589.6 2.131.012.623-.636v-11.887l-.459-1.354z"/><path d="m280.886 4.034-.836 1.4-3.35 14.22.565 1.271h-4.885l.412-1.271-3.382-14.22-.824-1.4h4.755l-.576 1.307 1.965 8.65 1.966-8.65-.435-1.307z"/><path d="m9.76 32.961 2.261 2.239v12.4l-2.261 2.252h-5.709l-2.251-2.252v-12.39l2.247-2.249zm-1.777 13.807.624-.658v-9.476l-.564-.6h-2.178l-.648.646v9.476l.612.612z"/><path d="m19.235 32.961v15.69l.59 1.2h-4.439l.46-1.247v-12.535h-.471l-1.142.388.718-3.5z"/><path d="m29.912 32.961 2.236 2.249v5.425l-6.533 3.485.012 2.648h3.119l-.011-2.789 3.413 1.2v4.673h-9.935v-7.545l6.533-3.484v-2.154l-.648-.647h-2.141l-.589.6v1.942l-3.414-1.484v-1.859l2.237-2.26z"/><path d="m42.9 32.961 2.248 2.249v5.425l-.706.777.706.766v5.422l-2.248 2.252h-6.173l-2.236-2.252v-1.86l3.4-1.495v1.942l.588.6h2.613l.636-.647v-2.633l-.648-.635h-2.787v-3.061h2.789l.648-.635v-2.507l-.636-.647h-2.613l-.588.6v1.942l-3.4-1.484v-1.859l2.236-2.26z"/><path d="m51.5 32.961-.435 1.319v7.875l.612.6h1.623l.024-7.027-.46-1.389h4.336l-.458 1.377.011 7.039h2.495l-.918 3.414h-1.569v2.437l.612 1.247h-4.544l.436-1.2.011-2.483h-3.436l-2.24-2.251v-9.663l-.436-1.3z"/><path d="m71.169 32.961v3.239l-3.414 1.2v-1.355h-3.119v3.108l6.756 1.647v6.8l-2.236 2.248h-5.721l-2.235-2.248v-3.8l3.413 1v1.389l.578.6h2.154l.647-.647v-3.082l-6.756-1.648v-8.451z"/><path d="m81.468 32.961 2.237 2.26v1.4l-3.732 1.624.318-1.318v-.306l-.577-.6h-2.154l-.647.647v2.755h4.531l2.261 2.224v5.953l-2.261 2.248h-5.7l-2.233-2.248v-12.39l2.236-2.249zm-1.8 13.807.636-.647v-3.037l-.589-.6h-2.155l-.647.647v3.037l.6.6z"/><path d="m96.875 33.008-4.375 15.974.423.87h-4.629l.719-1.2 3.6-12.547h-5.5l-1.13.388.223-1.048.5-2.436z"/><path d="m107.139 32.984 2.249 2.226v5.038l-.5.482.953.941v5.945l-2.241 2.236h-6.616l-2.236-2.236v-5.933l.954-.953-.495-.495v-5.014l2.237-2.237zm-1.317 13.8.623-.646v-3.038l-.588-.6h-3.057l-.648.648v3.025l.6.6zm-.46-7.38.624-.646v-2.113l-.576-.611-2.155.011-.647.635v2.12l.6.6z"/><path d="m119.981 32.949 2.248 2.249v12.402l-2.248 2.248h-5.721l-2.236-2.26v-1.4l3.414-1.483v1.483l.588.6h2.154l.636-.647v-2.751h-4.533l-2.259-2.237v-5.953l2.259-2.249zm-3.967 7.38h2.154l.648-.647v-3.037l-.6-.611h-2.154l-.623.646v3.038z"/></g></svg>

<svg xmlns="http://www.w3.org/2000/svg" viewBox="0 0 285.795 54.5">
  <title>ws2018-icons</title>
  <g id="grid">
    <g>
      <path d="M9.867,4.022l-.5,1.354,2.79,14.4.706,1.153H8.078l.446-1.213-.388-2.389h-2.8l-.389,2.424.436,1.178H.58l.706-1.142L4.051,5.411l-.47-1.389ZM5.829,14.262h1.8L6.724,8.518Z" fill="#222"/>
      <path d="M22.52,4.034l2.236,2.237v4.554l-1.4,1.413,1.4,1.388-.011,5.121-2.166,2.178H14.116l.423-1.142V5.3l-.423-1.27Zm-4.567,7.9,2.66-1.377.706-.718V7.918L20.59,7.2H17.953Zm.011,6H20.59l.753-.718V14.674l-.718-.718-2.661,1.378Z" fill="#222"/>
      <path d="M34.962,4.022l2.272,2.249V7.812l-3.425,1.5V7.694l-.6-.612L31.042,7.1l-.647.646v9.511l.612.6,2.154.013.623-.648.013-.765,3.437-1.5v3.732l-2.272,2.236H29.229l-2.247-2.248V6.271l2.247-2.249Z" fill="#222"/>
      <path d="M48.051,4.034l2.237,2.237-.012,12.476L48.11,20.925H39.647l.424-1.142V5.3l-.424-1.27ZM43.484,17.865H46.12l.754-.731V7.824l-.719-.718H43.484Z" fill="#222"/>
      <path d="M61.987,4.034l.741,3.543L61.316,7.1H56.6v3.636h3.344l1.377-.47v3.9l-1.307-.435-3.414.011v4.133l5.651.011v-.011l1.4-.483-.706,3.543H52.723l.459-1.248V5.411l-.459-1.377Z" fill="#222"/>
      <path d="M74.511,4.034l.729,3.543L73.84,7.1H69.12v3.636h3.343l1.377-.459v3.884l-1.307-.435-3.413.011v5.933l.541,1.26H65.236l.458-1.248V5.411l-.458-1.377Z" fill="#222"/>
      <path d="M85.188,4.034l2.259,2.248.024,1.53-3.766,1.66.329-1.342V7.706L83.457,7.1,81.3,7.106l-.659.635v9.511l.612.6,2.153.013.625-.625V14.1l-.989-.884,4.426-1.93-.024,7.4-2.259,2.236H79.479L77.23,18.677V6.282l2.249-2.248Z" fill="#222"/>
      <path d="M100.89,4.045l-.46,1.377V19.654l.613,1.271h-4.5l.471-1.271V14.38H93.744V19.7l.588,1.225h-4.46l.459-1.236V5.411l-.459-1.366H94.2L93.744,5.4V10.99h3.273V5.341l-.436-1.3Z" fill="#222"/>
      <path d="M107.692,3.987l-.458,1.377.023,14.3.611,1.26h-4.554l.435-1.2.058-14.36-.458-1.377Z" fill="#222"/>
      <path d="M120.641,4.034l-.46,1.365V18.7l-2.212,2.225h-5.744l-2.131-2.143-.023-1.6,2.79-1.212v-.012l.917-.4-.317,1.282v.542l.518.518h2.236l.6-.6V7.224l-1.249-3.19Z" fill="#222"/>
      <path d="M133.941,20.925H129.48l.447-1.2v-6.2l-.718-.719-2.46,1.236.012,5.627.6,1.26h-4.533l.448-1.2.024-14.36-.46-1.377H127.2l-.47,1.377.012,5.274L129.186,9.4l.706-.73V5.341l-.447-1.354H133.8l-.46,1.365V9.671l-1.412,1.4,1.4,1.4v7.181Z" fill="#222"/>
      <path d="M140.556,4.022l-.472,1.4-.011,12.443,5.65.011v-.011l1.4-.483-.106.494-.6,3.049H136.189l.459-1.248V5.4l-.459-1.377Z" fill="#222"/>
      <path d="M163.028,4.034l-.46,1.388V19.665l.612,1.26h-4.144l.472-1.271v-8.84l-2.249,5.968h-2.271l-2.26-5.968v8.851l.612,1.26H149.2l.472-1.271V5.434l-.472-1.4h4.462l2.448,6.674,2.484-6.674Z" fill="#222"/>
      <path d="M165.44,4.034h3.5q-.129,0,4.049,7.969L173,5.293l-.518-1.259H176.6l-.46,1.235V19.8l.541,1.13h-3.3l-4.2-8.769v7.5l.613,1.271h-4.214l.447-1.225V5.258Z" fill="#222"/>
      <path d="M187.039,4.034l2.26,2.237V18.677l-2.26,2.248H181.33l-2.248-2.248V6.282l2.248-2.248ZM185.261,17.84l.625-.658V7.706L185.3,7.1h-2.141l-.66.658v9.476l.6.611Z" fill="#222"/>
      <path d="M200.01,4.045l2.237,2.237-.012,6.485-2.166,2.166h-4.614v4.732l.611,1.26h-4.484l.459-1.248V5.3l-.423-1.259Zm-4.555,7.817h2.636l.742-.719V7.824l-.707-.718h-2.671Z" fill="#222"/>
      <path d="M212.593,4.034l2.26,2.237V18.652l-.059.06,1.424,1.435-2.178,2.178-1.435-1.435-.012.011h-5.7l-2.249-2.249V6.282L206.9,4.034Zm-1.778,13.783.624-.648V7.694l-.576-.6h-2.155l-.647.646V17.2l.6.612Z" fill="#222"/>
      <path d="M225.506,4.045l2.236,2.226-.012,6.485-2.013,2.013,2.238,4.732,1.282,1.424H224.07l.377-1.048-2.155-4.944H220.95v4.721l.613,1.271h-4.485l.459-1.248V5.3l-.424-1.259Zm-4.556,7.817h2.626l.753-.731V7.824l-.718-.718H220.95Z" fill="#222"/>
      <path d="M238.724,4.034l2.237,2.26V8.671l-3.414,1.483V7.694l-.576-.588L234.816,7.1l-.647.646v2.1L240.7,13.32v5.321l-2.273,2.284h-5.708l-2.236-2.236V16.252l3.413-1.2V17.24l.6.6h2.154l.648-.646v-2l-6.533-3.484V6.282L233,4.034Z" fill="#222"/>
      <path d="M253.5,4.01l.729,3.543-1.4-.483h-2.532v12.6l.613,1.26H246.4l.47-1.26V7.07H244.4l-1.4.483.729-3.543Z" fill="#222"/>
      <path d="M267.209,4.01l-.447,1.354-.024,13.418-2.13,2.143h-5.733L256.651,18.7V5.387l-.459-1.377h4.3l-.459,1.377V17.275l.589.6,2.131.012.623-.636V5.364l-.459-1.354Z" fill="#222"/>
      <path d="M280.886,4.034l-.836,1.4L276.7,19.654l.565,1.271h-4.885l.412-1.271L269.41,5.434l-.824-1.4h4.755l-.576,1.307,1.965,8.65,1.966-8.65-.435-1.307Z" fill="#222"/>
      <path d="M9.76,32.961,12.021,35.2V47.6L9.76,49.852H4.051L1.8,47.6V35.21l2.247-2.249ZM7.983,46.768l.624-.658V36.634l-.564-.6H5.865l-.648.646v9.476l.612.612Z" fill="#222"/>
      <path d="M19.235,32.961v15.69l.59,1.2H15.386l.46-1.247V36.069h-.471l-1.142.388.718-3.5Z" fill="#222"/>
      <path d="M29.912,32.961l2.236,2.249v5.425L25.615,44.12l.012,2.648h3.119l-.011-2.789,3.413,1.2v4.673H22.213V42.307l6.533-3.484V36.669l-.648-.647H25.957l-.589.6v1.942L21.954,37.08V35.221l2.237-2.26Z" fill="#222"/>
      <path d="M42.9,32.961l2.248,2.249v5.425l-.706.777.706.766V47.6L42.9,49.852H36.727L34.491,47.6v-1.86l3.4-1.495v1.942l.588.6h2.613l.636-.647V43.507l-.648-.635H38.293V39.811h2.789l.648-.635V36.669l-.636-.647H38.481l-.588.6v1.942l-3.4-1.484V35.221l2.236-2.26Z" fill="#222"/>
      <path d="M51.5,32.961l-.435,1.319v7.875l.612.6H53.3l.024-7.027-.46-1.389H57.2l-.458,1.377.011,7.039h2.495l-.918,3.414H56.761v2.437l.612,1.247H52.829l.436-1.2.011-2.483H49.84L47.6,43.919V34.256l-.436-1.3Z" fill="#222"/>
      <path d="M71.169,32.961V36.2l-3.414,1.2V36.045H64.636v3.108L71.392,40.8v6.8l-2.236,2.248H63.435L61.2,47.6V43.8l3.413,1v1.389l.578.6h2.154l.647-.647V43.06l-6.756-1.648V32.961Z" fill="#222"/>
      <path d="M81.468,32.961l2.237,2.26v1.4l-3.732,1.624.318-1.318v-.306l-.577-.6H77.56l-.647.647v2.755h4.531l2.261,2.224V47.6l-2.261,2.248h-5.7L73.511,47.6V35.21l2.236-2.249Zm-1.8,13.807.636-.647V43.084l-.589-.6H77.56l-.647.647v3.037l.6.6Z" fill="#222"/>
      <path d="M96.875,33.008,92.5,48.982l.423.87H88.294l.719-1.2,3.6-12.547h-5.5l-1.13.388.223-1.048.5-2.436Z" fill="#222"/>
      <path d="M107.139,32.984l2.249,2.226v5.038l-.5.482.953.941v5.945L107.6,49.852h-6.616l-2.236-2.236V41.683l.954-.953-.495-.495V35.221l2.237-2.237Zm-1.317,13.8.623-.646V43.1l-.588-.6H102.8l-.648.648v3.025l.6.6Zm-.46-7.38.624-.646V36.645l-.576-.611-2.155.011-.647.635V38.8l.6.6Z" fill="#222"/>
      <path d="M119.981,32.949l2.248,2.249V47.6l-2.248,2.248H114.26l-2.236-2.26v-1.4l3.414-1.483v1.483l.588.6h2.154l.636-.647V43.39h-4.533l-2.259-2.237V35.2l2.259-2.249Zm-3.967,7.38h2.154l.648-.647V36.645l-.6-.611h-2.154l-.623.646v3.038Z" fill="#222"/>
    </g>
  </g>
</svg>
